icon-themes/breeze_svg/cmd/32/graphicfilterrelief.svg

<svg viewBox="0 0 32 32" xmlns="http://www.w3.org/2000/svg"><path d="m4 4v24h13v-2h-11v-20h20v19h2v-21zm6 6v12h12v-12zm1 1h10v10h-10z" fill="#b3b3b3"/><path d="m19 26a1 1 0 0 0 -1 1 1 1 0 0 0 1 1 1 1 0 0 0 1-1 1 1 0 0 0 -1-1zm4 0a1 .9999913 0 0 0 -1 1 1 .9999913 0 0 0 1 1 1 .9999913 0 0 0 1-1 1 .9999913 0 0 0 -1-1zm4 0a1 1 0 0 0 -1 1 1 1 0 0 0 1 1 1 1 0 0 0 1-1 1 1 0 0 0 -1-1z" fill="#f47750"/><path d="m5 5v22h12v-1h-11v-20h20v19h1v-20zm6 6v10h10v-10zm1 1h8v8h-8z" fill="#4d4d4d"/></svg>

<svg xmlns="http://www.w3.org/2000/svg" viewBox="0 0 32 32">
 <path 
     style="fill:#b3b3b3" 
     d="M 4 4 L 4 28 L 17 28 L 17 26 L 6 26 L 6 6 L 26 6 L 26 25 L 28 25 L 28 4 L 4 4 z M 10 10 L 10 22 L 22 22 L 22 10 L 10 10 z M 11 11 L 21 11 L 21 21 L 11 21 L 11 11 z "
     />
 <path 
     style="fill:#f47750" 
     d="M 19 26 A 1 1 0 0 0 18 27 A 1 1 0 0 0 19 28 A 1 1 0 0 0 20 27 A 1 1 0 0 0 19 26 z M 23 26 A 1 0.9999913 0 0 0 22 27 A 1 0.9999913 0 0 0 23 28 A 1 0.9999913 0 0 0 24 27 A 1 0.9999913 0 0 0 23 26 z M 27 26 A 1 1 0 0 0 26 27 A 1 1 0 0 0 27 28 A 1 1 0 0 0 28 27 A 1 1 0 0 0 27 26 z "
     />
 <path 
     style="fill:#4d4d4d" 
     d="M 5 5 L 5 27 L 17 27 L 17 26 L 6 26 L 6 6 L 26 6 L 26 25 L 27 25 L 27 5 L 5 5 z M 11 11 L 11 21 L 21 21 L 21 11 L 11 11 z M 12 12 L 20 12 L 20 20 L 12 20 L 12 12 z "
     />
</svg>
